client/SVG/manachterbureau.svg

<svg width="568" height="342" viewBox="0 0 568 342" fill="none" xmlns="http://www.w3.org/2000/svg">
<path d="M19.7796 99.2502C23.3396 95.5902 26.8696 91.8902 30.5096 88.2902C31.1596 87.6402 32.2096 87.3102 33.1396 87.0402C48.0596 82.6802 61.4396 86.0702 72.2596 96.7302C75.4096 99.8302 76.3096 105.94 76.7896 110.82C77.2396 115.37 74.2096 117.8 69.1296 115.71C70.9096 121.03 72.7296 122.66 80.0196 126.06C81.0396 128.81 81.8796 131.06 82.7196 133.32C84.1496 131.93 85.5796 130.54 87.7496 128.44C94.6296 130.71 97.0196 124.77 99.9296 119.24C104.16 111.18 108.65 103.26 114.03 95.7702C108.93 106.16 103.83 116.54 98.6096 127.19C103.66 129.05 106.89 128.33 109.04 123.51C110.79 119.59 113.24 115.99 116.3 112.68C113.51 118.27 110.71 123.86 107.39 130.49C110.97 131.44 113.99 132.83 117.07 132.96C125.36 133.29 133.68 133.07 141.99 133.07C142.17 132.65 142.35 132.23 142.54 131.82C138.75 129.84 135.05 127.63 131.13 125.96C128.56 124.86 127.45 123.44 127.82 120.7C128.63 114.79 129.36 108.87 130.16 102.63C131.98 102.89 133.21 103.06 136.15 103.47C134.7 100.84 134.11 98.7502 132.75 97.5402C129.82 94.9302 125.52 93.3902 123.52 90.2902C118.2 82.0802 115.39 72.8502 116.1 62.8602C116.55 56.4802 120.2 54.6102 125.44 58.2202C129.53 61.0302 133.39 64.1902 137.71 67.4702C140.72 62.7702 143.4 58.4202 146.25 54.2002C147.74 52.0002 149.51 50.0002 151.22 47.9602C153.09 45.7402 155.1 44.6602 158.14 46.2802C161.28 47.9502 161.58 50.3502 161.16 53.4002C160.32 59.4902 159.7 65.6102 158.86 71.7002C158.26 76.0102 160.26 77.9802 164.26 79.0702C169.06 80.3802 173.89 81.8702 178.4 83.9502C198.9 93.3702 220.41 88.8102 241.53 88.5502C265.37 88.2502 288.96 85.1102 312.32 80.2402C314.72 79.7402 317.96 80.7902 320.15 82.1802C343.22 96.7302 366.14 111.51 389.12 126.19C392.77 128.52 396.45 130.8 400.27 132.83C405.9 135.83 411.62 136.08 417.29 132.76C416.37 130.1 417.743 126.747 421.41 122.7C416.16 117.5 413.68 111.11 413.92 103.52C413.98 101.73 412.11 99.7902 410.91 98.0802C409 95.3502 406.26 92.9602 410.64 89.8502C412.09 88.8202 413.24 86.6802 413.51 84.9002C413.68 83.7602 412.21 81.5802 411.05 81.2102C408.08 80.2502 404.79 80.2802 401.77 79.4302C400.51 79.0702 399.6 77.4602 398.23 76.1402C404.71 73.0002 411.11 80.5902 416.47 73.7902C423.77 76.4802 431.67 79.3902 439.57 82.2902C439.62 82.6202 439.67 82.9402 439.72 83.2702C437.06 83.4802 434.4 83.6902 430.61 83.9902C437.6 90.5502 436.11 98.4502 435.89 105.9C435.73 111.23 436.65 115.41 442.37 117.79C445.76 115.11 449.75 112.41 453.06 109.05C453.95 108.14 453.13 105.14 452.55 103.27C450.94 98.0502 454.37 92.2802 459.74 91.5902C459.54 91.1702 459.33 90.7402 459.13 90.3202C460.83 89.4102 462.65 88.6702 464.17 87.5302C465.43 86.5802 466.33 85.1502 468.28 82.9102C471.94 85.8002 475.95 88.9602 479.56 91.8102C491.59 85.6802 503.67 79.5302 516.61 72.9302C513.56 71.8702 511.07 70.6802 508.45 70.1702C503.34 69.1802 501.49 66.2702 502.96 61.3402C503.5 59.5402 503.38 57.5502 503.62 54.9202C506.15 54.4802 509.19 53.9402 512.38 53.3802C510.57 49.1002 501.27 55.3302 504.11 46.4502C498.02 43.3002 497.43 42.6702 502.29 37.7502C507.26 32.7202 505.78 25.8502 509.01 20.4602C512.01 15.4602 513.66 9.54023 517.14 4.96023C519.15 2.31023 523.56 0.24023 526.97 0.11023C540.5 -0.39977 553.76 1.10023 563.1 12.6702C565.18 15.2402 566.81 18.7802 567.16 22.0302C568.37 33.2802 566.52 43.8002 558.57 52.7202C555.98 55.6202 554.55 59.5602 552.6 63.0202C553.11 62.9802 553.62 62.9302 554.13 62.8902C555.1 66.8602 556.01 70.8502 557.07 74.8002C558.52 80.2402 559.46 85.9202 561.72 91.0102C567.74 104.59 569.17 118.2 563.47 132.1C562.05 135.56 559.68 138.64 557.72 141.87C555.84 144.96 552.74 147.86 552.26 151.14C550.91 160.36 545.71 167.51 540.72 174.66C535.51 182.14 529.89 189.56 523.24 195.7C520.27 198.45 513.71 199.91 509.89 198.63C500.04 195.33 495.08 199.34 490.04 207.04C478.76 224.3 466.68 241.05 455.09 258.12C450.82 264.4 450.31 264.6 443.06 259.45V248.53C437.79 252.52 433.66 256.1 428.1 252.72C427.35 255.21 427.02 257.02 426.28 258.65C425.03 261.39 423.77 263.45 421.16 259.32C420.43 258.17 417.53 258.4 415.19 257.91C415.17 257.83 414.98 256.93 414.7 255.64C413.67 256.49 412.85 257.15 411.68 258.12C411.27 256.97 410.93 256.01 410.67 255.27C406.89 254.7 403.21 254.14 399.12 253.52C398.57 259.1 396.98 263.94 404.33 264.67C405.77 264.81 407.02 266.8 408.05 269.01H398.77C399.8 273.58 402.18 274.97 406.11 275.39C423.37 277.2 437.67 286.11 452.09 294.85C461.88 300.79 471.85 306.62 484 306.52C488.33 306.48 490.76 308.92 490.14 313.65C489.93 315.29 489.97 316.98 489.99 318.65C490.04 322.21 490.58 325.94 484.9 325.35C483.96 325.25 482.83 326.94 481.73 327.86C486.59 331.87 487.5 335.17 484.62 337.97C482.1 340.43 479.19 339.87 477.09 337.61C473.8 334.08 475.4 330.96 479.74 327.84C477.62 326.78 475.98 325.21 474.51 325.34C460.9 326.59 449.06 321.54 437.42 315.51C426.46 309.83 414.69 307.39 401.69 306.79V324.13C398.74 325.7 396.65 326.81 393.91 328.27C397.89 330.87 400.98 333.6 397.43 337.63C395.22 340.14 391.86 340.49 389.46 337.82C385.9 333.87 389.38 331.27 392.55 328.12C390.06 326.8 387.89 325.64 384.86 324.03C384.86 320.9 384.51 316.73 384.95 312.66C385.49 307.7 383.29 306.83 378.96 307.02C366.79 307.57 355.38 310.88 344.35 315.8C340.1 317.69 335.64 319.21 331.59 321.46C325.51 324.83 319.09 325.64 312.32 325.61C310.2 325.61 308.07 326.9 305.23 327.83C310.57 331.94 311.41 335.51 308.52 338.47C306.1 340.94 303.45 340.83 300.99 338.61C298.06 335.97 298.73 332.34 303.39 328.34C301.12 327.33 299.16 325.68 297.34 325.82C293.77 326.1 293.16 324.77 293.12 321.62C292.97 308.77 292.87 308.66 305.56 307.31C317.92 305.99 327.4 298.97 336.98 292C349.48 282.92 363.6 277.66 378.77 275.43C382.76 274.84 385.92 274.2 387.6 269.52H377.45C377.25 268.97 377.05 268.42 376.84 267.88C379.12 266.65 381.45 265.5 383.68 264.17C385.14 263.29 387.66 262.07 387.6 261.16C387.38 258.15 387.12 253.77 385.19 252.53C380.51 249.51 377.66 245.89 374.84 241.07C372.97 237.86 366.78 237.11 362.41 235.57C362.15 235.48 361.09 238.32 360.08 239.53C359.22 240.57 357.91 241.25 356.8 242.09C356.58 240.7 356.29 239.31 356.16 237.91C356.12 237.47 356.53 237 356.72 236.54C360.38 227.48 358.7 219.537 351.68 212.71C347.8 208.97 343.65 205.51 339.28 201.61C339.81 199.93 340.43 197.94 341.21 195.44C315.67 187.18 290.27 178.97 263.77 170.4C263.77 173.38 263.77 175.43 263.77 177.49C263.84 220.5 263.98 263.52 263.94 306.53C263.94 316.19 263.14 325.85 263.06 335.52C263.03 339.85 260.53 339.6 257.54 339.77C254.32 339.96 253.06 338.87 253.03 335.59C252.99 332.12 252.39 328.66 251.99 324.86H209.27C208.77 329.85 208.29 334.58 207.78 339.7H196.16C195.58 335.2 194.97 330.51 194.31 325.43H22.4696C21.9896 330.4 21.5096 335.45 20.9796 340.96C17.3996 340.96 14.0896 341.23 10.8596 340.8C9.85957 340.67 8.48957 338.68 8.35957 337.43C7.71957 330.97 7.10957 324.48 7.08957 318C6.96957 281.49 7.02957 244.98 6.96957 208.46C6.96957 206.33 6.87957 204.03 6.09957 202.11C0.119567 187.26 -0.640433 171.78 0.379567 156.27C1.01957 146.54 3.32957 136.92 4.98957 127.26C5.16957 126.19 5.95957 125.22 6.45957 124.21C2.33957 141.27 0.469567 158.54 2.18957 176.06C2.80957 182.37 4.02957 188.62 4.96957 194.9C5.46957 194.81 5.96957 194.72 6.46957 194.63V134.47C9.73957 134.06 14.0496 134.75 15.5296 133.02C17.2796 130.97 16.5896 126.84 16.9696 123.48C23.4696 122.04 27.0196 117.37 30.6096 111.99C21.2596 109.64 21.2996 109.64 21.6896 101.02C21.7196 100.45 20.4496 99.8302 19.7796 99.2302V99.2502ZM368.76 214.8C368.37 215.38 367.98 215.97 367.6 216.55C373.77 220.9 379.93 225.26 386.13 229.56C386.61 229.89 387.41 230.06 387.98 229.94C394.28 228.52 399.14 232.35 403.58 235.34C408.76 238.83 420.13 242.84 427.46 240.97C407.31 231.99 388.04 223.4 368.76 214.8ZM163.23 132.75C156.45 128.99 153.26 129.2 150.77 132.75H163.23ZM372.97 233.85C370.03 231.23 367.7 229.14 365.22 226.93C363.18 231.71 364.69 233.08 372.97 233.85Z" fill="black"/>
<path d="M19.7786 99.25C20.4486 99.85 21.7186 100.47 21.6886 101.04C21.3086 109.66 21.2686 109.66 30.6086 112.01C27.0286 117.39 23.4686 122.05 16.9686 123.5C16.5886 126.85 17.2786 130.99 15.5286 133.04C14.0486 134.77 9.73861 134.08 6.46861 134.49V194.65C5.96861 194.74 5.46861 194.83 4.96861 194.92C4.01861 188.64 2.80861 182.39 2.18861 176.08C0.468611 158.56 2.33861 141.29 6.45861 124.23C9.61861 115.23 12.3586 106 19.7786 99.27V99.25Z" fill="white"/>
<path d="M368.76 214.801C388.04 223.391 407.31 231.991 427.46 240.971C420.13 242.841 408.76 238.831 403.58 235.341C399.14 232.351 394.28 228.531 387.98 229.941C387.41 230.071 386.61 229.901 386.13 229.561C379.93 225.251 373.77 220.891 367.6 216.551C367.99 215.971 368.38 215.381 368.76 214.801Z" fill="white"/>
<path d="M163.23 132.75C158.13 132.75 154.45 132.75 150.77 132.75C153.26 129.2 156.46 128.99 163.23 132.75Z" fill="white"/>
<path d="M372.969 233.85C364.689 233.08 363.179 231.72 365.219 226.93C367.699 229.14 370.029 231.22 372.969 233.85Z" fill="white"/>
</svg>

<?xml version="1.0" encoding="UTF-8"?><svg id="Layer_1" xmlns="http://www.w3.org/2000/svg" viewBox="0 0 567.5 341.02"><defs><style>.cls-1{fill:#fff;}.cls-2{fill:#2d2d2d;}</style></defs><path class="cls-2" d="M19.78,99.22c3.56-3.66,7.09-7.36,10.73-10.96,.65-.65,1.7-.98,2.63-1.25,14.92-4.36,28.3-.97,39.12,9.69,3.15,3.1,4.05,9.21,4.53,14.09,.45,4.55-2.58,6.98-7.66,4.89,1.78,5.32,3.6,6.95,10.89,10.35,1.02,2.75,1.86,5,2.7,7.26,1.43-1.39,2.86-2.78,5.03-4.88,6.88,2.27,9.27-3.67,12.18-9.2,4.23-8.06,8.72-15.98,14.1-23.47-5.1,10.39-10.2,20.77-15.42,31.42,5.05,1.86,8.28,1.14,10.43-3.68,1.75-3.92,4.2-7.52,7.26-10.83-2.79,5.59-5.59,11.18-8.91,17.81,3.58,.95,6.6,2.34,9.68,2.47,8.29,.33,16.61,.11,24.92,.11,.18-.42,.36-.84,.55-1.25-3.79-1.98-7.49-4.19-11.41-5.86-2.57-1.1-3.68-2.52-3.31-5.26,.81-5.91,1.54-11.83,2.34-18.07,1.82,.26,3.05,.43,5.99,.84-1.45-2.63-2.04-4.72-3.4-5.93-2.93-2.61-7.23-4.15-9.23-7.25-5.32-8.21-8.13-17.44-7.42-27.43,.45-6.38,4.1-8.25,9.34-4.64,4.09,2.81,7.95,5.97,12.27,9.25,3.01-4.7,5.69-9.05,8.54-13.27,1.49-2.2,3.26-4.2,4.97-6.24,1.87-2.22,3.88-3.3,6.92-1.68,3.14,1.67,3.44,4.07,3.02,7.12-.84,6.09-1.46,12.21-2.3,18.3-.6,4.31,1.4,6.28,5.4,7.37,4.8,1.31,9.63,2.8,14.14,4.88,20.5,9.42,42.01,4.86,63.13,4.6,23.84-.3,47.43-3.44,70.79-8.31,2.4-.5,5.64,.55,7.83,1.94,23.07,14.55,45.99,29.33,68.97,44.01,3.65,2.33,7.33,4.61,11.15,6.64,5.63,3,11.35,3.25,17.02-.07-.92-2.66,.45-6.01,4.12-10.06-5.25-5.2-7.73-11.59-7.49-19.18,.06-1.79-1.81-3.73-3.01-5.44-1.91-2.73-4.65-5.12-.27-8.23,1.45-1.03,2.6-3.17,2.87-4.95,.17-1.14-1.3-3.32-2.46-3.69-2.97-.96-6.26-.93-9.28-1.78-1.26-.36-2.17-1.97-3.54-3.29,6.48-3.14,12.88,4.45,18.24-2.35,7.3,2.69,15.2,5.6,23.1,8.5,.05,.33,.1,.65,.15,.98-2.66,.21-5.32,.42-9.11,.72,6.99,6.56,5.5,14.46,5.28,21.91-.16,5.33,.76,9.51,6.48,11.89,3.39-2.68,7.38-5.38,10.69-8.74,.89-.91,.07-3.91-.51-5.78-1.61-5.22,1.82-10.99,7.19-11.68-.2-.42-.41-.85-.61-1.27,1.7-.91,3.52-1.65,5.04-2.79,1.26-.95,2.16-2.38,4.11-4.62,3.66,2.89,7.67,6.05,11.28,8.9,12.03-6.13,24.11-12.28,37.05-18.88-3.05-1.06-5.54-2.25-8.16-2.76-5.11-.99-6.96-3.9-5.49-8.83,.54-1.8,.42-3.79,.66-6.42,2.53-.44,5.57-.98,8.76-1.54-1.81-4.28-11.11,1.95-8.27-6.93-6.09-3.15-6.68-3.78-1.82-8.7,4.97-5.03,3.49-11.9,6.72-17.29,3-5,4.65-10.92,8.13-15.5,2.01-2.65,6.42-4.72,9.83-4.85,13.53-.51,26.79,.99,36.13,12.56,2.08,2.57,3.71,6.11,4.06,9.36,1.21,11.25-.64,21.77-8.59,30.69-2.59,2.9-4.02,6.84-5.97,10.3,.51-.04,1.02-.09,1.53-.13,.97,3.97,1.88,7.96,2.94,11.91,1.45,5.44,2.39,11.12,4.65,16.21,6.02,13.58,7.45,27.19,1.75,41.09-1.42,3.46-3.79,6.54-5.75,9.77-1.88,3.09-4.98,5.99-5.46,9.27-1.35,9.22-6.55,16.37-11.54,23.52-5.21,7.48-10.83,14.9-17.48,21.04-2.97,2.75-9.53,4.21-13.35,2.93-9.85-3.3-14.81,.71-19.85,8.41-11.28,17.26-23.36,34.01-34.95,51.08-4.27,6.28-4.78,6.48-12.03,1.33v-10.92c-5.27,3.99-9.4,7.57-14.96,4.19-.75,2.49-1.08,4.3-1.82,5.93-1.25,2.74-2.51,4.8-5.12,.67-.73-1.15-3.63-.92-5.97-1.41-.02-.08-.21-.98-.49-2.27-1.03,.85-1.85,1.51-3.02,2.48-.41-1.15-.75-2.11-1.01-2.85-3.78-.57-7.46-1.13-11.55-1.75-.55,5.58-2.14,10.42,5.21,11.15,1.44,.14,2.69,2.13,3.72,4.34h-9.28c1.03,4.57,3.41,5.96,7.34,6.38,17.26,1.81,31.56,10.72,45.98,19.46,9.79,5.94,19.76,11.77,31.91,11.67,4.33-.04,6.76,2.4,6.14,7.13-.21,1.64-.17,3.33-.15,5,.05,3.56,.59,7.29-5.09,6.7-.94-.1-2.07,1.59-3.17,2.51,4.86,4.01,5.77,7.31,2.89,10.11-2.52,2.46-5.43,1.9-7.53-.36-3.29-3.53-1.69-6.65,2.65-9.77-2.12-1.06-3.76-2.63-5.23-2.5-13.61,1.25-25.45-3.8-37.09-9.83-10.96-5.68-22.73-8.12-35.73-8.72v17.34c-2.95,1.57-5.04,2.68-7.78,4.14,3.98,2.6,7.07,5.33,3.52,9.36-2.21,2.51-5.57,2.86-7.97,.19-3.56-3.95-.08-6.55,3.09-9.7-2.49-1.32-4.66-2.48-7.69-4.09,0-3.13-.35-7.3,.09-11.37,.54-4.96-1.66-5.83-5.99-5.64-12.17,.55-23.58,3.86-34.61,8.78-4.25,1.89-8.71,3.41-12.76,5.66-6.08,3.37-12.5,4.18-19.27,4.15-2.12,0-4.25,1.29-7.09,2.22,5.34,4.11,6.18,7.68,3.29,10.64-2.42,2.47-5.07,2.36-7.53,.14-2.93-2.64-2.26-6.27,2.4-10.27-2.27-1.01-4.23-2.66-6.05-2.52-3.57,.28-4.18-1.05-4.22-4.2-.15-12.85-.25-12.96,12.44-14.31,12.36-1.32,21.84-8.34,31.42-15.31,12.5-9.08,26.62-14.34,41.79-16.57,3.99-.59,7.15-1.23,8.83-5.91h-10.15c-.2-.55-.4-1.1-.61-1.64,2.28-1.23,4.61-2.38,6.84-3.71,1.46-.88,3.98-2.1,3.92-3.01-.22-3.01-.48-7.39-2.41-8.63-4.68-3.02-7.53-6.64-10.35-11.46-1.87-3.21-8.06-3.96-12.43-5.5-.26-.09-1.32,2.75-2.33,3.96-.86,1.04-2.17,1.72-3.28,2.56-.22-1.39-.51-2.78-.64-4.18-.04-.44,.37-.91,.56-1.37,3.66-9.06,1.98-17-5.04-23.83-3.88-3.74-8.03-7.2-12.4-11.1,.53-1.68,1.15-3.67,1.93-6.17-25.54-8.26-50.94-16.47-77.44-25.04v7.09c.07,43.01,.21,86.03,.17,129.04,0,9.66-.8,19.32-.88,28.99-.03,4.33-2.53,4.08-5.52,4.25-3.22,.19-4.48-.9-4.51-4.18-.04-3.47-.64-6.93-1.04-10.73h-42.72c-.5,4.99-.98,9.72-1.49,14.84h-11.62c-.58-4.5-1.19-9.19-1.85-14.27H22.47c-.48,4.97-.96,10.02-1.49,15.53-3.58,0-6.89,.27-10.12-.16-1-.13-2.37-2.12-2.5-3.37-.64-6.46-1.25-12.95-1.27-19.43-.12-36.51-.06-73.02-.12-109.54,0-2.13-.09-4.43-.87-6.35C.12,187.23-.64,171.75,.38,156.24c.64-9.73,2.95-19.35,4.61-29.01,.18-1.07,.97-2.04,1.47-3.05-4.12,17.06-5.99,34.33-4.27,51.85,.62,6.31,1.84,12.56,2.78,18.84l1.5-.27v-60.16c3.27-.41,7.58,.28,9.06-1.45,1.75-2.05,1.06-6.18,1.44-9.54,6.5-1.44,10.05-6.11,13.64-11.49-9.35-2.35-9.31-2.35-8.92-10.97,.03-.57-1.24-1.19-1.91-1.79v.02h0Zm348.98,115.55c-.39,.58-.78,1.17-1.16,1.75,6.17,4.35,12.33,8.71,18.53,13.01,.48,.33,1.28,.5,1.85,.38,6.3-1.42,11.16,2.41,15.6,5.4,5.18,3.49,16.55,7.5,23.88,5.63-20.15-8.98-39.42-17.57-58.7-26.17Zm-205.53-82.05c-6.78-3.76-9.97-3.55-12.46,0h12.46Zm209.74,101.1c-2.94-2.62-5.27-4.71-7.75-6.92-2.04,4.78-.53,6.15,7.75,6.92Z"/><path class="cls-1" d="M163.23,132.72h-12.46c2.49-3.55,5.69-3.76,12.46,0Z"/><path class="cls-1" d="M372.97,233.82c-8.28-.77-9.79-2.13-7.75-6.92,2.48,2.21,4.81,4.29,7.75,6.92Z"/></svg>
